!!!!SEGMENT: pl-kk--kk-i-8--026_anonim--fortem-virili-pectore.krn
!!!cenid: 16xx:1167
!!!COM: Anonim
!!!COM-rismid: pe30004985
!!!CDT:
!!!CNT:
!!!OTL: Fortem virili pectore
!!!PDT:
!!!AGN: Sacred
!!!SMS-siglum: PL-Kk
!!!SMS-shelfmark: Kk.I.8
!!!SMS-shelfwork: 026 W
!!!SMS-variant:
!!!SMS-altvar:
!!!NIFC-rismid: 1001149064
!!!URL-scan: http://repozytorium.nifc.pl/skany/pl-kk-nut--i-8
!!!ONB-nifc: UWAGA: A (skan 0016), T1 (0040), T2 (0063), B (0086). Następny utwór: Sicut cedrus exaltata
**kern	**text	**text	**kern	**text	**text	**kern	**text	**text	**kern	**text	**text	**dynam
*part4	*part4	*part4	*part3	*part3	*part3	*part2	*part2	*part2	*part1	*part1	*part1	*
*staff4	*staff4	*staff4	*staff3	*staff3	*staff3	*staff2	*staff2	*staff2	*staff1	*staff1	*staff1	*
*Ibass	*	*	*Itenor	*	*	*Itenor	*	*	*Ialto	*	*	*
*I"[BASSVS.]	*	*	*I"[TENOR 2dus.]	*	*	*I"[Tenore 1mo]	*	*	*I"[alto.]	*	*	*
*I'B	*	*	*I'T 2	*	*	*I'T 1	*	*	*I'A	*	*	*
*clefF4	*	*	*clefC1	*	*	*clefC4	*	*	*clefC3	*	*	*
*k[]	*	*	*k[]	*	*	*k[]	*	*	*k[]	*	*	*
*C:	*	*	*C:	*	*	*C:	*	*	*C:	*	*	*
*M3/1	*	*	*M3/1	*	*	*M3/1	*	*	*M3/1	*	*	*
=1	=1	=1	=1	=1	=1	=1	=1	=1	=1	=1	=1	=1
!LO:TX:a:B:t=DeSs.Viduis	!	!	!LO:TX:a:B:t=De Viduis	!	!	!LO:TX:a:B:t=De Viduis	!	!	!LO:TX:a:t=De Viduis	!	!	!
!	!	!	!	!	!	!	!	!	!LO:TX:t=P:problem:przed kluczem inicjał F	!	!	!
1C	For-	De-	1cc	For-	DE-	1e	For-	De-	1G	For-	De-	.
1E	-tem	-o	1cc	-tem	.	1e	-tem	.	1c	-tem	.	.
1G	vi-	Pa-	1b	Vi-	-O	1d	Vi-	-o	1d	vi-	-o	.
=2	=2	=2	=2	=2	=2	=2	=2	=2	=2	=2	=2	=2
1E	-ri-	-tri	1cc,<	-ri-	Pa-	1c	-ri-	Pa-	1e	-ri-	Pa-	.
*	*	*ij	*	*	*	*	*	*	*	*	*	*
!	!	!	!	!	!	!	!	!	!LO:TX:t=P:problem:skreślona nuta 1c	!	!	!
1C	-li	Pa-	1cc,<	-li	-tri	1G	-li	-tri	1g,<	-li	-tri	.
*	*	*	*	*	*	*	*	*	*	*	*ij	*
1B	vi-	-tri	1dd	Vi-	Pa-	1B	Vi-	Pa-	1g	vi-	Pa-	.
*	*	*Xij	*	*	*	*	*	*	*	*	*	*
=3	=3	=3	=3	=3	=3	=3	=3	=3	=3	=3	=3	=3
0A	-ri-	sit	0cc	-ri-	.	0e	-ri-	-tri	0g	-ri-	-tri	.
*	*	*	*	*	*	*	*	*	*	*	*Xij	*
!	!	!	!	!	!	!	!	!	!LO:TX:a:t=P:problem:# above	!	!	!
1D	-li	glo-	1cc	-li	-tri	1d	-li	sit	1f#X	-li	sit	.
=4	=4	=4	=4	=4	=4	=4	=4	=4	=4	=4	=4	=4
1.G	pec-	-ri-	1.b	pec-	sit	1.d	pec-	glo-	1.g	pec-	glo-	.
*2\right	*	*	*2\right	*	*	*2\right	*	*	*	*	*	*
2G\	-to-	-a	2b\	-to-	glo-	2d\	-to-	-ri-	2g\	-to-	-ri-	.
1G	-re	.	1b	-re	.	1d,<	-re	-a.	1g,<	-re	-a	.
=5	=5	=5	=5	=5	=5	=5	=5	=5	=5	=5	=5	=5
1G	lau-	E-	1g	lau-	-roi-	1B	lau-	E-	1d	Lau-	E-	.
1.C	-de-	-jus-	1.a	-de-	-a	1c	-de-	-jus-	(2e\	-de-	-jus-	.
.	.	.	.	.	.	.	.	.	2d\)	.	.	.
.	.	.	.	.	.	1e	-m(us)	-q(ue)	(2c/	-m(us)	-que	.
2C/	-mus	-que	2g/	-m(us)	E-	.	.	.	2B/)	.	.	.
=6	=6	=6	=6	=6	=6	=6	=6	=6	=6	=6	=6	=6
0D	om-	so-	0f#X	om-	-ius-	0d	om-	So-	0A	o(m)-	so-	.
1BB	-nes	-li	1g	-nes	-que	0d	-nes	-li	1B	-(n)es	.	.
=7	=7	=7	=7	=7	=7	=7-	=7	=7	=7	=7	=7	=7
(2BB/	fae-	Fi-	1g	fae-	so-	.	.	.	1B	fae-	-li	.
2C/)	.	.	.	.	.	.	.	.	.	.	.	.
*	*	*	*	*	*	*col	*	*	*	*	*	*
1.D	-mi-	.	2f#X/	.	-li	1.d	fae-	Fi-	1.A	.	Fi-	.
.	.	.	2e/	.	Fi-	.	.	.	.	.	.	.
.	.	.	2f#X/	.	.	.	.	.	.	.	.	.
2D/	.	-li-	2f#/	-mi-	-li-	2d\	-mi-	-li-	2A/	-mi-	-li-	.
*	*	*	*	*	*	*Xcol	*	*	*	*	*	*
=8	=8	=8	=8	=8	=8	=8	=8	=8	=8	=8	=8	=8
0GG	-nam	-o	0b,<	-nam	-o	0d,<	-nam	-o:	0G	-nam	-o	.
1E	quae	cum	1g	quae	cu(m)	1e	quae	cum	1c	quae	cum	.
=9	=9	=9	=9	=9	=9	=9	=9	=9	=9	=9	=9	=9
1.F	ſan-	Spi-	1.f	ſan-	Spi-	1.c	ſan-	Spi-	1.A	ſan-	Spi-	.
2E\	-cti-	-ri-	2g\	-cti-	-ri-	2c\	-cti-	-ri-	2B/	-cti-	-ri-	.
!LO:SIC:v:t=custos C	!	!	!	!	!	!LO:SIC:v:t=custos e	!	!	!	!	!	!
1D	-ta-	-tu	(2a\	-ta-	-tu	1f	-ta-	-tu	(<2c/	-ta-	-tu	.
.	.	.	2b\)	.	.	.	.	.	2d\)	.	.	.
!LO:LB:g=original	!	!	!LO:LB:g=original	!	!	!LO:LB:g=original	!	!	!LO:LB:g=original	!	!	!
=10-	=10	=10	=10	=10	=10	=10	=10	=10	=10	=10	=10	=10
1C	-tis	Pa-	1cc	-tis	pa-	1e	-tis	Pa-	1e	-tis	Pa-	.
!	!	!	!	!	!	!	!	!	!LO:TX:a:t=P:problem:♮ above	!	!	!
1.D	glo-	-ra-	1.cc	glo-	-ra-	1.d	glo-	-ra-	1.fn	glo-	-ra-	.
2D/	-ri-	-cli-	2b\	-ri-	-cli-	2d\	-ri-	-cli-	2f\	-ri-	-cli-	.
=11	=11	=11	=11-	=11	=11	=11	=11	=11	=11	=11	=11	=11
0C,<	-a	-to	0cc,<	-a	-to	0G,<	-a	-to	0e,<	-a	-to	.
!	!	!	!	!	!	!	!	!	!LO:SIC:v:l:s=U-:verse1	!	!	!
1C	u-	in	1cc	u-	in	1G	u-	in	1e	V-	in	.
=12	=12	=12	=12	=12	=12	=12	=12	=12	=12	=12	=12	=12
1.G	-bi-	sem-	1.b	-bi-	sem-	1.G	-bi-	sem-	1.d	-bi-	.	.
2E\	-q(ue)	.	2cc\	-q(ue)	.	2G/	-q(ue)	.	2e\	-q(ue)	sem-	.
1F	ful-	.	1a	ful-	.	1F	ful-	-pi-	1c	ful-	-pi-	.
=13	=13	=13	=13	=13	=13	=13	=13	=13	=13	=13	=13	=13
1D	-get	-pi-	1a	-get	-pi-	1f	-get	-ter-	1d	-get	-ter-	.
1.E	in-	-ter-	1.a	in-	-ter-	1.e	in-	-na	1.B	in-	-na	.
!	!	!	!LO:TX:b:t=P:problem:# below	!	!	!	!	!	!	!	!	!
2E\	-cli-	-na	2g#X\	-cli-	.	2e\	-cli-	.	2B/	-cly-	sae-	.
=14	=14	=14	=14	=14	=14	=14	=14	=14	=14	=14	=14	=14
0AA,<	-ta	sae-	0a	-ta	-na	0e,<	-ta	sae-	0A,<	-ta	-cu-	.
1C	Lau-	-cu-	1g	lau-	sae-	1e	lau-	-cu-	1G	lau-	-la	.
=15	=15	=15	=15	=15	=15	=15	=15	=15	=15	=15	=15	=15
1E	-de-	-la	1g	-de-	-cu-	1e	-de-	-la	1c	-dê-	in	.
!	!	!	!	!	!	!	!	!	!LO:TX:t=P:problem:skreślona nuta 1G	!	!	!
1C	-m(us)	in	1e	-m(us)	-la	1c	-m(us)	.	1c	-m(us)	sem-	.
*	*ij	*	*	*ij	*	*	*ij	*	*	*ij	*	*
!	!	!	!	!	!	!	!	!	!LO:TX:t=P:problem:skreślona nuta 1c	!	!	!
1G	lau-	sem-	1cc	lau-	in	1G	lau-	in	1d	lau-	-pi-	.
=16	=16	=16	=16	=16	=16	=16	=16	=16	=16-	=16	=16	=16
1c	-de-	-pi-	1cc	-de-	sem-	1c	-de-	sem-	1e	-dê-	-ter-	.
1c,<	-m(us)	-ter-	1g	-mus	.	1c	-mus	.	1c	-mus	-na	.
*	*Xij	*	*	*Xij	*	*	*Xij	*	*	*Xij	*ij	*
*	*ij	*	*	*	*	*	*	*	*	*	*	*
1C	lau-	-na	1cc	lau-	.	1e	lau-	-pi-	1g	lau-	in	.
=17	=17	=17	=17	=17	=17	=17	=17	=17	=17|:	=17	=17	=17
*	*	*ij	*	*	*	*	*	*	*	*	*	*
!	!	!	!	!	!	!	!	!	!LO:TX:a:t=soli	!	!	!
1.F	-de-	sem-	1.a	-de-	-pi-	(2f\	-de-	-ter-	(2a\	-de-	sem-	.
.	.	.	.	.	.	2e\)	.	.	2g\)	.	.	.
!	!	!	!	!	!	!	!	!	!	!	!	!LO:DY:b:t=Forte
.	.	.	.	.	.	(2d\	-mus	.	(2f\	-m(us)	-pi-	f
2F\	-m(us)	-pi-	2a\	-m(us)	-ter-	2c\)	.	.	2e\)	.	.	.
*	*Xij	*	*	*	*	*	*	*	*	*	*	*
1G	om-	-ter-	1b	om-	-na	1B	om-	.	1d	o(m)-	-ter-	.
=18	=18	=18	=18	=18	=18	=18	=18	=18	=18	=18	=18	=18
1E	-nes	-na	1cc	-nes	sae-	1c	-nes	-na	1e	-(n)es	-na	.
*	*	*Xij	*	*	*	*	*	*	*	*	*Xij	*
1.G	fae-	sae-	1.g	fae-	.	1.c	fae-	sae-	1.d	Fae-	sae-	.
2G\	-mi-	-cu-	2g/	-mi-	-cu-	2B\	-mi-	-cu-	2d\	-mi-	-cu-	.
=19	=19	=19	=19	=19	=19	=19	=19	=19	=19	=19	=19	=19
0C	-na(m)	-la	0g,<	-nam	-la	0c,<	-na(m)	-la	0c	-nam	-la	.
*	*	*	*	*	*	*	*	*	*	*	*ij	*
!LO:TX:b:t=Echo	!	!	!	!	!	!	!	!	!	!	!	!
!	!	!	!	!	!	!	!	!	!	!	!	!LO:DY:b:t=Pia
1C	Lau-	in	1cc	Lau-	in	1e	lau-	in	1g	Lau-	in	p
!	!	!	!	!	!	!LO:LB:g=original	!	!	!LO:LB:g=original	!	!	!
=20-	=20	=20	=20	=20	=20	=20	=20	=20	=20:|	=20	=20	=20
!	!	!	!	!	!	!	!	!	!LO:TX:t=P:problem:powtórzenie taktów 17-19	!	!	!
1.F	-de-	sem-	1.a	-de-	sem-	(2f\	-de-	sem-	(y2a\yy	-de-	sem-	.
.	.	.	.	.	.	2e\)	.	.	2g\)yy	.	.	.
.	.	.	.	.	.	(2d\	-mus	-pi-	(y2f\yy	-m(us)	-pi-	.
2F\	-m(us)	-pi-	2a\	-m(us)	-pi-	2c\)	.	.	2e\)yy	.	.	.
!	!	!	!LO:SIC:v:t=custos cc	!	!	!	!	!	!	!	!	!
1G	o-	-ter-	1b	O-	-ter-	1B	om-	-ter-	1dyy	o(m)-	-ter-	.
!LO:LB:g=original	!	!	!LO:LB:g=original	!	!	!	!	!	!	!	!	!
=21-	=21	=21	=21	=21	=21	=21	=21	=21	=21	=21	=21	=21
1E	-mnes	-na	1cc	-mnes	-na	1c	-nes	-na	1eyy	-(n)es	-na	.
*	*	*	*	*	*	*	*	*	*	*	*Xij	*
1.G	fae-	sae-	1.dd	Fae-	sae-	1.c	fae-	sae-	1.dyy	Fae-	sae-	.
2G\	-mi-	-cu-	2dd\	-mi-	-cu-	2B\	-mi-	-cu-	2d\yy	-mi-	-cu-	.
=22	=22	=22	=22	=22	=22	=22	=22	=22	=22	=22	=22	=22
0.C;	-nam	-la	0.ee;<	-na(m)	-la.	0.c;<	-na(m)	-la.	0.c;yy	-nam	-la	.
=23||	=23||	=23||	=23||	=23||	=23||	=23||	=23||	=23||	=23||	=23||	=23||	=23||
0.C	Haec	.	0.cc	Haec	.	0.G	Haec	.	0.e	Haec	.	.
=24	=24	=24	=24	=24	=24	=24	=24	=24	=24	=24	=24	=24
1C	ſa-	.	1g	ſa-	.	1c	ſa-	.	1e	Sa-	.	.
1C	-cro	.	1g	-cro	.	1c	-cro	.	1e	-cro	.	.
1C	a-	.	1a-X	a-	.	1c	a-	.	1g	a-	.	.
=25	=25	=25	=25	=25	=25	=25	=25	=25	=25	=25	=25	=25
0C	-mo-	.	0f	-mo-	.	0d	-mo-	.	0gn	-mo-	.	.
1BB	-re	.	1g	-re	.	1d	-re	.	1g	-re	.	.
=26	=26	=26	=26	=26	=26	=26	=26	=26	=26	=26	=26	=26
1.C	fau-	.	1.e	ſau-	.	1.c	fau-	.	1.g	ſau-	.	.
2C/	-ci-	.	2e/	-ci-	.	2c\	-ci-	.	2g\	-ci-	.	.
2C/	-a	.	2e/	-a	.	2c\	-a	.	2g,<\	-a	.	.
2C/	dum	.	2g/	dum	.	2c\	dum	.	2g\	du(m)	.	.
=27	=27	=27	=27	=27	=27	=27	=27	=27	=27	=27	=27	=27
!	!	!	!LO:N:acc=#	!	!	!	!	!	!LO:TX:a:t=P:problem:♮ above	!	!	!
1FF	mu(n)-	.	1an	mun-	.	1A	mun-	.	1fn	mun-	.	.
1FF	-di	.	1f	-di	.	1d	-di	.	1f	-di	.	.
1FF	a-	.	1e	a-	.	1c	a-	.	1an	a-	.	.
=28	=28	=28	=28	=28	=28	=28	=28	=28	=28	=28	=28	=28
0.GG	-mo-	.	0d	-mo-	.	0B	-mo-	.	0g	-mo-	.	.
.	.	.	1e-X	-re(m)	.	1c	-rem	.	1g,<	-re(m)	.	.
=29	=29	=29	=29	=29	=29	=29	=29	=29	=29	=29	=29	=29
1FF#X	-rem	.	(1e	no-	.	0c	no-	.	1a	no-	.	.
1.GG	no-	.	1.d)	.	.	.	.	.	1.g	.	.	.
.	.	.	.	.	.	2c\	.	.	.	.	.	.
!	!	!	!	!	!	!LO:SIC:v:t=custos c	!	!	!	!	!	!
2GG/	-xi-	.	2d/	-xi-	.	2B\	-xi-	.	2g\	-xi-	.	.
!	!	!	!	!	!	!LO:LB:g=original	!	!	!	!	!	!
=30	=30	=30	=30	=30	=30	=30	=30	=30	=30	=30	=30	=30
0C	-um	.	0c	-um	.	0c	-um	.	0g,<	-u(m)	.	.
1BB	hor-	.	1d	hor-	.	1G	hor-	.	1g	hor-	.	.
=31	=31	=31	=31-	=31	=31	=31	=31	=31	=31	=31	=31	=31
!	!	!	!LO:N:acc=#	!	!	!	!	!	!	!	!	!
(2C/	-reſ-	.	1.en	-reſ-	.	1.c	-reſ-	.	1.g	-reſ-	.	.
2BB/)	.	.	.	.	.	.	.	.	.	.	.	.
(2C/	-cit	.	.	.	.	.	.	.	.	.	.	.
2D/)	.	.	2f/	-cit	.	2c\	-cit	.	2g\	-cit	.	.
1E	ad	.	(2g/	ad	.	(2B\	ad	.	1g	ad	.	.
!	!	!	!LO:SIC:v:t=custos b	!	!	!	!	!	!	!	!	!
.	.	.	2a/)	.	.	2c\)	.	.	.	.	.	.
!LO:LB:g=original	!	!	!LO:LB:g=original	!	!	!	!	!	!	!	!	!
=32-	=32	=32	=32	=32	=32	=32	=32	=32	=32	=32	=32	=32
1BB	cae	.	1b	cae-	.	1d	cae	.	1g	cae-	.	.
1.D	-leſ-	.	1.a	-leſ-	.	1.d	-leſ-	.	1.g	-lêſ-	.	.
!	!	!	!	!	!	!	!	!	!LO:TX:a:t=P:problem:# above	!	!	!
2D\	-ti-	.	2a\	-ti-	.	2c\	-ti-	.	2f#X\	-ti-	.	.
=33	=33	=33	=33	=33	=33	=33	=33	=33	=33	=33	=33	=33
0GG	-a	.	0g,<	-a	.	0B	-a	.	0g,<	-a	.	.
*	*	*	*	*ij	*	*	*ij	*	*	*ij	*	*
1E	hor-	.	1g	hor-	.	1c	hor-	.	1g	hor-	.	.
!	!	!	!	!	!	!	!	!	!LO:LB:g=original	!	!	!
=34	=34	=34	=34	=34	=34	=34	=34	=34	=34	=34	=34	=34
(2F\	-re-	.	1.a	-reſ-	.	1.c	-reſ-	.	1.fn	-reſ-	.	.
2E\)	.	.	.	.	.	.	.	.	.	.	.	.
(2F\	-ſcit	.	.	.	.	.	.	.	.	.	.	.
2G\)	.	.	2b\	-cit	.	2B\	-cit	.	2f\	-cit	.	.
1A	ad	.	(2cc\	ad	.	1A	ad	.	(2e\	ad	.	.
.	.	.	2dd\)	.	.	.	.	.	2f\)	.	.	.
=35	=35	=35	=35	=35	=35	=35	=35	=35	=35	=35	=35	=35
1E	cae-	.	1ee	cae-	.	1c	cae-	.	1g	cae-	.	.
1.G	-leſ-	.	1.dd	-leſ-	.	1.c	-leſ-	.	1.g	-lêſ-	.	.
2G\	-ti-	.	2dd\	-ti-	.	2B\	-ti-	.	2g\	-ti-	.	.
=36	=36	=36	=36	=36	=36	=36	=36	=36	=36	=36	=36	=36
0G	-a	.	0dd	-a	.	0B	-a	.	0g,<	-a	.	.
*	*	*	*	*Xij	*	*	*Xij	*	*	*Xij	*	*
1E	i-	.	1ee	i-	.	1c	i-	.	1g	i-	.	.
=37	=37	=37	=37	=37	=37	=37	=37	=37	=37	=37	=37	=37
1.F	-ter	.	1.cc	-ter	.	1.f	-ter	.	1.a	-têr	.	.
2E\	pe-	.	2cc\	pe-	.	2c\	pe-	.	2g\	pe-	.	.
1D	-re-	.	1dd	-re-	.	(2A\	-re-	.	1fn	-re-	.	.
.	.	.	.	.	.	2B\)	.	.	.	.	.	.
=38	=38	=38	=38	=38	=38	=38	=38	=38	=38	=38	=38	=38
1C	-git	.	1ee	-git	.	2c\	-git	.	1g	-git	.	.
.	.	.	.	.	.	2c\	ar-	.	.	.	.	.
1.GG	ar-	.	1.dd	ar-	.	1.c	-du-	.	1.g	ar-	.	.
2GG/	-du-	.	2dd\	-du-	.	2B\	.	.	2f\	-du-	.	.
=39	=39	=39	=39	=39	=39	=39	=39	=39	=39-	=39	=39	=39
0.C;<	-um.	.	0.cc	-um	.	0.c;<	-um	.	0.e;;	-um	.	.
!	!	!	!	!	!	!LO:LB:g=original	!	!	!	!	!	!
=40||	=40||	=40||	=40||	=40||	=40||	=40||	=40||	=40||	=40||	=40||	=40||	=40||
0C	Car-	.	0g	Car-	.	0c	Car-	.	0en	Car-	.	.
1C	-nem	.	1g	-nem	.	1c	-nem	.	1e	-ne(m)	.	.
=41	=41	=41	=41	=41	=41	=41	=41	=41	=41-	=41	=41	=41
1F	do-	.	1a-X	do-	.	1c	do-	.	1fn	do-	.	.
1F	-mans	.	1a-	-ma(n)s	.	1c	-mans	.	1f	-mans	.	.
!	!	!	!	!	!	!	!	!	!LO:SIC:v:l:s=ie-	!	!	!
1C	ie-	.	1g	ie-	.	1c	ie-	.	1en	je-	.	.
!LO:LB:g=original	!	!	!LO:LB:g=original	!	!	!	!	!	!	!	!	!
=42-	=42	=42	=42	=42	=42	=42	=42	=42	=42	=42	=42	=42
!	!	!	!	!	!	!	!	!	!LO:SIC:v:l:s=-iu-	!	!	!
1.GG	-iu-	.	1.g	-iu-	.	1.B	-iu-	.	1.d	-ju-	.	.
2GG/	-ni-	.	2g/	-ni-	.	2B\	-ni-	.	2d\	-ni-	.	.
1GG	-js	.	1g	-js	.	1B	-js	.	1d	-js	.	.
=43	=43	=43	=43	=43	=43	=43	=43	=43	=43	=43	=43	=43
1GG	men-	.	1g	men-	.	1B	men-	.	1d	[[dul-	mên-	.
1GG	-tem-	.	1g	-tem-	.	1B	-te-	.	1d	-ci]]	-tem-	.
1GG	-q(ue)	.	1g	-q(ue)	.	1B	-q(ue)	.	1d	.	-q(ue)	.
=44	=44	=44	=44	=44	=44	=44	=44	=44	=44	=44	=44	=44
0C	dul-	.	0g	dul-	.	2c\	dul-	.	2en\	[[men-	dul-	.
.	.	.	.	.	.	2B\	.	.	2d\	.	.	.
.	.	.	.	.	.	2A/	.	.	(2c/	-tem-	.	.
.	.	.	.	.	.	2G/	.	.	2B/)	.	.	.
1D	-ci	.	1dd	-ci	.	1F#X	-ci	.	1A	.	-ci	.
=45-	=45	=45	=45	=45	=45	=45	=45	=45	=45-	=45	=45	=45
2BBn/	pa-	.	(2dd\	pa-	.	1G	.	.	1Bn,<	-qe]]	.	.
2C/	.	.	2ee-X\)	.	.	.	.	.	.	.	.	.
1.D	.	.	1.dd	-bu-	.	1.G	pa-	.	1.A	pa-	.	.
2D/	-bu-	.	2dd\	-lo	.	2F#X/	-bu-	.	2A/	-bu-	.	.
=46	=46	=46	=46	=46	=46	=46	=46	=46	=46	=46	=46	=46
0GG	-lo	.	0dd,<	.	.	0G	-lo	.	0G,<	-lo	.	.
1C	O-	.	1cc	O-	.	1E	o-	.	1G	o-	.	.
=47	=47	=47	=47	=47	=47	=47-	=47	=47	=47	=47	=47	=47
!	!	!	!	!	!	!LO:N:acc=-	!	!	!	!	!	!
1.F	-ra-	.	1.cc	-ra-	.	1.Fn	-ra-	.	1.A	-ra-	.	.
2E\	-ti-	.	2cc\	-ti-	.	2G/	-ti-	.	2B/	-ti-	.	.
1D	-o-	.	1dd	-o-	.	(2A/	-o-	.	(2c\	-o-	.	.
.	.	.	.	.	.	2B/)	.	.	2d\)	.	.	.
=48	=48	=48	=48	=48	=48	=48	=48	=48	=48	=48	=48	=48
1C	-nis	.	1g	-nis	.	(2c\	-nis	.	(2e\	-nis	.	.
.	.	.	.	.	.	2A\)	.	.	2f\)	.	.	.
1.G	nu-	.	1.g	nu-	.	1.B	nu-	.	1.dT	nu-	.	.
!LO:TX:b:t=P:problem:# below	!	!	!	!	!	!LO:SIC:v:t=custos B	!	!	!	!	!	!
2F#X\	-tri-	.	2a\	-tri-	.	2A\	-tri-	.	2d\	-tri-	.	.
!	!	!	!	!	!	!LO:LB:g=original	!	!	!	!	!	!
=49-	=49	=49	=49-	=49	=49	=49	=49	=49	=49	=49	=49	=49
0G	-ens	.	0b	-ens	.	0B	-ens	.	0d,<	-ens	.	.
1GG	coe-	.	1dd	coe-	.	1B	coe-	.	1d	coe-	.	.
=50	=50	=50	=50	=50	=50	=50	=50	=50	=50	=50	=50	=50
1.C,<	-li	.	1.cc	-li	.	1.c	-li	.	1.e	-li	.	.
2BB/	po-	.	2g/	po-	.	2d\	po-	.	2d\	po-	.	.
(2C/	-ti-	.	1cc	-ti-	.	1c	-ti-	.	2e\	-ti-	.	.
!LO:SIC:v:t=custos E	!	!	!	!	!	!	!	!	!LO:TX:a:t=P:problem:# above	!	!	!
2D/)	.	.	.	.	.	.	.	.	2f#X\	.	.	.
!LO:LB:g=original	!	!	!	!	!	!	!	!	!	!	!	!
=51-	=51	=51	=51	=51	=51	=51	=51	=51	=51	=51	=51	=51
1E	-tur	.	1b	-tur	.	1B	-tur	.	1g,<	-t(ur)	.	.
(1C	gau-	.	1cc	gau-	.	1.A	gau-	.	1.g	gau-	.	.
2.D/)	.	.	2a\	.	.	.	.	.	.	.	.	.
!	!	!	!LO:SIC:v:t=custos b	!	!	!	!	!	!LO:TX:b:t=P:problem:# below	!	!	!
.	.	.	2dd\	-di-	.	2A\	-di-	.	2f#X\	-di-	.	.
4D/	-di-	.	.	.	.	.	.	.	.	.	.	.
!	!	!	!LO:LB:g=original	!	!	!	!	!	!	!	!	!
=52	=52	=52	=52-	=52	=52	=52	=52	=52	=52-	=52	=52	=52
!	!	!	!	!	!	!	!	!	!	!LO:SIC:v:l:s=-is	!	!
0GG	-js	.	0b	-is	.	0B	-js	.	0g,<	-js	.	.
1G	coe-	.	1dd	coe-	.	1c	coe-	.	1d	coe-	.	.
!	!	!	!	!	!	!	!	!	!LO:LB:g=original	!	!	!
=53	=53	=53	=53	=53	=53	=53	=53	=53	=53	=53	=53	=53
0C	-li	.	1cc	-li	.	0c	-li	.	0e	-li	.	.
.	.	.	2ee\	coe-	.	.	.	.	.	.	.	.
.	.	.	2dd\	.	.	.	.	.	.	.	.	.
1E	coe-	.	2cc\	.	.	1G	coe-	.	1g	coe-	.	.
.	.	.	2b\	.	.	.	.	.	.	.	.	.
=54	=54	=54	=54	=54	=54	=54	=54	=54	=54	=54	=54	=54
(2F\	-li	.	2a\	.	.	(2A\	-li	.	1.c,<	-li	.	.
2G\)	.	.	2b\	-li	.	2B\)	.	.	.	.	.	.
(2A\	po-	.	2cc\	po-	.	1c	.	.	.	.	.	.
2B\)	.	.	2dd\	.	.	.	.	.	2d\	po-	.	.
1c	-ti-	.	1ee	-ti-	.	(2c\	po-	.	2e\	.	.	.
.	.	.	.	.	.	2d\)	.	.	2f\	-ti-	.	.
=55	=55	=55	=55	=55	=55	=55	=55	=55	=55	=55	=55	=55
(2E\	-tur	.	1cc	-tur	.	2e\	-ti-	.	(2g\	-tur	.	.
2F\)	.	.	.	.	.	2c\	-tur	.	2a\)	.	.	.
1.G	gau-	.	1.g	gau-	.	1.c	gau-	.	1.d	gau-	.	.
2G\	-di-	.	2g/	-di-	.	2B\	-di-	.	2d/	-di-	.	.
=56	=56	=56	=56-	=56	=56	=56	=56	=56	=56	=56	=56	=56
!	!	!	!	!	!	!	!	!	!LO:SIC:v:l:s=-is	!	!	!
0.C	-js	.	0.g	-js	.	0.c;<	-js	.	0.c;<	-js	.	.
=57||	=57||	=57||	=57||	=57||	=57||	=57||	=57||	=57||	=57||	=57||	=57||	=57||
1C	Rex	.	1g	Rex	.	1c	Rex	.	1e	Rex	.	.
1C	Chri-	.	1g	Chri-	.	1c	Chri-	.	1e	(Chri-	.	.
1BB	-ste	.	1g	-ſte	.	1d	-ſte	.	1d	-ſ)te	.	.
=58	=58	=58	=58	=58	=58	=58	=58	=58	=58	=58	=58	=58
0AA	Vir-	.	0a	Vir-	.	0c	Vir-	.	0e	Vir-	.	.
1D	-t(us)	.	1a	-t(us)	.	1d	-tus	.	1f#X	-t(us)	.	.
!LO:LB:g=original	!	!	!	!	!	!LO:LB:g=original	!	!	!	!	!	!
=59-	=59	=59	=59	=59	=59	=59	=59	=59	=59	=59	=59	=59
1.GG	for-	.	1.b	for-	.	1.d	for-	.	1.g	for-	.	.
2GG/	-ti-	.	2b\	-ti-	.	2d\	-ti-	.	2g\	-ti-	.	.
!LO:SIC:v:t=custos BB	!	!	!	!	!	!	!	!	!	!	!	!
1GG	-um	.	1b	-u(m)	.	1d	-um	.	1g	-u(m)	.	.
=60	=60	=60	=60	=60	=60	=60	=60	=60	=60	=60	=60	=60
1BB	qui	.	1dd	qui	.	1B	qui	.	1g	qui	.	.
1BB	ma-	.	1dd	ma-	.	1B	ma-	.	1g	ma-	.	.
1BB	-gna	.	1dd	-gna	.	1B	-gna	.	1g	-gna	.	.
=61	=61	=61	=61	=61	=61	=61	=61	=61	=61	=61	=61	=61
1.C	ſo-	.	0cc	ſo-	.	0A	ſo-	.	(2e\	ſo-	.	.
.	.	.	.	.	.	.	.	.	2d\	.	.	.
.	.	.	.	.	.	.	.	.	2e\	.	.	.
2D\	.	.	.	.	.	.	.	.	2f\)	.	.	.
1E	-lus	.	1b	-l(us)	.	1G	-lus	.	1g,<	-l(us)	.	.
!	!	!	!LO:LB:g=original	!	!	!	!	!	!	!	!	!
=62-	=62	=62	=62	=62	=62	=62	=62	=62	=62	=62	=62	=62
1BB	.	.	(1b	ef-	.	1G	.	.	1g	.	.	.
!	!	!	!	!	!	!	!	!	!LO:LB:g=original	!	!	!
=-	=-	=-	=-	=-	=-	=-	=-	=-	=-	=-	=-	=-
1.D	ef-	.	2a\	.	.	1.A	ef-	.	1.g	ef-	.	.
.	.	.	2g\)	.	.	.	.	.	.	.	.	.
.	.	.	2.a\	.	.	.	.	.	.	.	.	.
!	!	!	!	!	!	!	!	!	!LO:TX:a:t=P:problem:# above	!	!	!
2D/	-fi-	.	.	.	.	2A\	-fi-	.	2f#X\	-fi-	.	.
!	!	!	!LO:TX:t=P:problem:4\right:global	!	!	!	!	!	!	!	!	!
.	.	.	4a\	-fi-	.	.	.	.	.	.	.	.
=63	=63	=63	=63	=63	=63	=63	=63	=63	=63	=63	=63	=63
0.GG	-cis	.	0.g	-cis	.	0.B	-cis	.	0.g	-cis	.	.
=64	=64	=64	=64	=64	=64	=64	=64	=64	=64	=64	=64	=64
1E	hu-	.	1b	hu-	.	1e	hu-	.	1g#X	Hu-	.	.
1E	-ius	.	1b	-ius	.	1e	-ius	.	1g#	-i(us)	.	.
1E	pre-	.	1b	pre-	.	1e	pre-	.	1g#	pre-	.	.
=65	=65	=65	=65	=65	=65	=65	=65	=65	=65	=65	=65	=65
1AA	-ca-	.	1cc	-ca-	.	1e	-ca-	.	1a	-ca-	.	.
1AA	-tu	.	1cc	-tu	.	1e	-tu	.	1a	-tu	.	.
!	!	!	!	!	!	!	!	!	!LO:TX:t=P:problem:skreślony krzyżyk i kasownik	!	!	!
1AA	pre-	.	1b	pre-	.	1e	pre-	.	1a	pre-	.	.
=66	=66	=66	=66	=66	=66	=66	=66	=66	=66-	=66	=66	=66
!	!	!	!	!	!	!	!	!	!LO:TX:b:t=P:problem:♮ below	!	!	!
!	!	!	!	!	!	!	!	!	!LO:TX:a:t=P:problem:♭ above	!	!	!
!	!	!	!	!	!	!	!	!	!LO:N:acc=-	!	!	!
1.D	-ca-	.	0a	-ca-	.	0d	-ca-	.	0fnX	-ca-	.	.
2E\	.	.	.	.	.	.	.	.	.	.	.	.
1F	-tu	.	(2a\	-tu	.	1c	-tu	.	2f\	.	.	.
.	.	.	2b\)	.	.	.	.	.	2g#X\	.	.	.
=67-	=67	=67	=67	=67	=67	=67	=67	=67	=67	=67	=67	=67
0E	quae-	.	1cc	quae-	.	2c\	quae-	.	1a,<	-tu	.	.
.	.	.	.	.	.	2d\	.	.	.	.	.	.
.	.	.	2b\	.	.	1.e	-ſu-	.	1.a	quae-	.	.
.	.	.	2a\	.	.	.	.	.	.	.	.	.
1E	-ſu-	.	2.b\	-ſu-	.	.	.	.	.	.	.	.
!	!	!	!	!	!	!	!	!	!LO:TX:a:t=P:problem:# above	!	!	!
.	.	.	.	.	.	2e\	.	.	2g#X\	-ſu-	.	.
.	.	.	4b\	.	.	.	.	.	.	.	.	.
=68	=68	=68	=68	=68	=68	=68	=68	=68	=68	=68	=68	=68
0AA	-m(us)	.	0a,<	-m(us)	.	0e	-m(us)	.	0a	-m(us)	.	.
1C	au-	.	1g	au-	.	1c	au-	.	1e	au-	.	.
=69	=69	=69	=69	=69	=69	=69	=69	=69	=69-	=69	=69	=69
0FF	-di	.	(2a/	-di	.	0c	-di	.	1.fn	-di	.	.
.	.	.	2g/)	.	.	.	.	.	.	.	.	.
.	.	.	(2f/	be-	.	.	.	.	.	.	.	.
.	.	.	2e/	.	.	.	.	.	2g\	be-	.	.
1FF	be-	.	2d/	.	.	1c	be-	.	1a	.	.	.
.	.	.	2e/)	.	.	.	.	.	.	.	.	.
!	!	!	!	!	!	!LO:LB:g=original	!	!	!	!	!	!
=70	=70	=70	=70	=70	=70	=70	=70	=70	=70	=70	=70	=70
1GG	-ni-	.	1d	-ni-	.	1B	-ni-	.	0g	-gn(us)	.	.
1GG	-gn(us)	.	1d	-gn(us)	.	1B	-gnus	.	.	.	.	.
!LO:SIC:v:t=custos AA	!	!	!LO:SIC:v:t=custos cc	!	!	!	!	!	!LO:TX:t=P:problem:skreślone 2 takty	!	!	!
!	!	!	!	!	!	!	!	!	!LO:TX:t=P:problem:skreślona nuta 1f lub 1g	!	!	!
1GG	be-	.	1g	be-	.	1B	be-	.	1d	be-	.	.
!LO:LB:g=original	!	!	!LO:LB:g=original	!	!	!	!	!	!LO:LB:g=original	!	!	!
=71	=71	=71	=71-	=71	=71	=71	=71	=71	=71	=71	=71	=71
0AA	-ni-	.	0cc	-ni-	.	0A	-ni-	.	1a	-ni-	.	.
.	.	.	.	.	.	.	.	.	1a	.	.	.
1BBn	-gnus	.	1bn	-gnus	.	1d	-gn(us)	.	1g	-gn(us)	.	.
=72	=72	=72	=72	=72	=72	=72	=72	=72	=72	=72	=72	=72
2BB/	ſup-	.	(2b\	ſup-	.	0d	ſup-	.	1g	sup-	.	.
2C/	.	.	2a\)	.	.	.	.	.	.	.	.	.
1.D	.	.	1.a	-pli-	.	.	.	.	1.g	.	.	.
.	.	.	.	.	.	1d	-pli-	.	.	.	.	.
*	*	*	*	*	*	*	*	*	*2\right	*	*	*
2D\	-pli-	.	2g\	-ces	.	.	.	.	2f#X\	-pli-	.	.
=73	=73	=73	=73	=73	=73	=73	=73	=73	=73	=73	=73	=73
0GG	-ces	.	0g	au-	.	0d	-ces	.	0g,<	-ces	.	.
1C	au-	.	1eenX	-di	.	1c	au-	.	1g	au-	.	.
=74	=74	=74	=74	=74	=74	=74	=74	=74	=74	=74	=74	=74
*	*	*	*	*ij	*	*	*	*	*	*	*	*
0G	-di	.	0dd	au-	.	0d	-di	.	0g,<	-di	.	.
*	*	*	*	*	*	*	*ij	*	*	*ij	*	*
1D	au-	.	1dd	-di	.	1f	au-	.	1f#X	au-	.	.
*	*	*	*	*Xij	*	*	*	*	*	*	*	*
=75	=75	=75	=75	=75	=75	=75	=75	=75	=75	=75	=75	=75
1.G	-di	.	1.dd	be-	.	1.f	-di	.	1.g,<	-di	.	.
*	*	*	*	*	*	*	*Xij	*	*	*Xij	*	*
2G\	be-	.	2dd\	-ni-	.	2e-X\	be-	.	2g\	be-	.	.
1C	-ni-	.	1cc	-gnus	.	1e-	-ni-	.	1e	-ni-	.	.
=76-	=76	=76	=76	=76	=76	=76	=76	=76	=76	=76	=76	=76
1EnX	-gn(us)	.	1cc	ſup-	.	1e	-gnus	.	1e,<	-gn(us)	.	.
1.G	ſup-	.	1.cc	.	.	1.d	ſup-	.	1.d	sup-	.	.
!	!	!	!LO:N:acc=#	!	!	!	!	!	!	!	!	!
2G\	-pli-	.	2bn\	-pli-	.	2d\	-pli-	.	2d\	-pli-	.	.
=77	=77	=77	=77-	=77	=77	=77-	=77	=77	=77	=77	=77	=77
!LO:TX:a:t=Deo Patri ut\nFortem Virili\n Ut ſupra.	!	!	!LO:TX:a:t=Deo Patri ut\nFortem Virili\n Ut ſupra.	!	!	!LO:TX:a:t=DEO Patri ut\nFortem Virili\n Ut Supra	!	!	!LO:TX:a:t=DEO Patri ut \nforte(m) virili ut sup(ra)	!	!	!
0.C;	-ces	.	0.cc;<	-ces	.	0.c;<	-ces.	.	0.e;	-ces.	.	.
!LO:PB:g=original	!	!	!LO:PB:g=original	!	!	!LO:PB:g=original	!	!	!LO:PB:g=original	!	!	!
==	==	==	==	==	==	==	==	==	==	==	==	==
*-	*-	*-	*-	*-	*-	*-	*-	*-	*-	*-	*-	*-
!!!system-decoration: [(s1,s2,s3,s4)]
!!!RDF**kern: < = below
!!!RDF**kern: > = above
!!!AIN: 1 alto 1 bass 2 tenor
!!!ENC: Marta Chmielewska
!!!END: 2021-04-06
!!!ENC: Andrzej Gręziak
!!!END: 2021-03-26
